X: 26937
T: Miss Brown
R: hornpipe
M: 4/4
K: Dmajor
|:D2 (3DDD DFAF|dFAF BFAF|E2 EF GFGB|edcB (3ABA (3GFE|
D2 (3DDD DFAF|dFAF BFAF|EFGA Bgec|1 d2 (3ddd d4:|2 d2 (3ddd d2 ag||
|:fd (3ddd fd (3ddd|fdfg a2 ed|cA (3AAA cA (3AAA|(3Bcd ef g2 ag|
fd (3ddd fd (3ddd|fdfg a2 gf|gbag fedc|1 e2 d2 d2 ag:|2 e2 d2 d4||

